packages/astro-components-stencil/src/icons/track-changes.svg

<svg width="24" height="24" viewBox="0 0 24 24" fill="none" xmlns="http://www.w3.org/2000/svg">
<path d="M18.32 5.67999C17.96 6.03999 17.93 6.59999 18.25 6.99999C19.7 8.81999 20.46 11.31 19.78 13.92C18.99 16.97 16.6 19.25 13.57 19.86C8.47002 20.87 4.00002 16.93 4.00002 12C4.00002 7.91999 7.05002 4.55999 11 4.06999V6.08999C7.87002 6.61999 5.57002 9.54999 6.07002 12.92C6.46002 15.53 8.63002 17.63 11.25 17.95C14.89 18.4 18 15.56 18 12C18 10.75 17.62 9.59999 16.97 8.63999C16.63 8.13999 15.9 8.10999 15.47 8.52999L15.46 8.53999C15.12 8.87999 15.09 9.40999 15.35 9.80999C15.95 10.73 16.19 11.91 15.84 13.13C15.45 14.5 14.3 15.59 12.9 15.9C10.3 16.47 8.00002 14.51 8.00002 12C8.00002 10.14 9.28002 8.58999 11 8.13999V10.28C10.4 10.63 10 11.26 10 12C10 13.1 10.9 14 12 14C13.1 14 14 13.1 14 12C14 11.26 13.6 10.62 13 10.28V2.70999C13 2.31999 12.68 1.99999 12.29 1.99999C6.93002 1.79999 2.31002 6.05999 2.02002 11.4C1.66002 17.95 7.43002 23.22 14.03 21.8C17.91 20.97 20.91 18 21.78 14.13C22.49 10.97 21.58 7.96999 19.81 5.75999C19.44 5.28999 18.74 5.25999 18.32 5.67999Z" fill="black"/>
</svg>

<svg xmlns="http://www.w3.org/2000/svg" viewBox="0 0 24 24"><g xmlns="http://www.w3.org/2000/svg" id="track-changes" fill-rule="nonzero">
            <path d="M18.32 5.68c-.36.36-.39.92-.07 1.32 1.45 1.82 2.21 4.31 1.53 6.92-.79 3.05-3.18 5.33-6.21 5.94C8.47 20.87 4 16.93 4 12c0-4.08 3.05-7.44 7-7.93v2.02a5.998 5.998 0 00-4.93 6.83c.39 2.61 2.56 4.71 5.18 5.03a6 6 0 005.72-9.31c-.34-.5-1.07-.53-1.5-.11l-.01.01c-.34.34-.37.87-.11 1.27.6.92.84 2.1.49 3.32a3.99 3.99 0 01-2.94 2.77A4 4 0 018 12c0-1.86 1.28-3.41 3-3.86v2.14c-.6.35-1 .98-1 1.72 0 1.1.9 2 2 2s2-.9 2-2c0-.74-.4-1.38-1-1.72V2.71c0-.39-.32-.71-.71-.71-5.36-.2-9.98 4.06-10.27 9.4-.36 6.55 5.41 11.82 12.01 10.4 3.88-.83 6.88-3.8 7.75-7.67.71-3.16-.2-6.16-1.97-8.37a1 1 0 00-1.49-.08z"/>
        </g></svg>
